icons/vip-crown-line.svg

<svg width="24" height="24" fill="none" xmlns="http://www.w3.org/2000/svg"><g clip-path="url(#a)"><path d="M2 19h20v2H2v-2ZM2 5l5 3.5L12 2l5 6.5L22 5v12H2V5Zm2 3.841V15h16V8.841l-3.42 2.394L12 5.28l-4.58 5.955L4 8.84v.001Z" /></g><defs><clipPath id="a"><path fill="#fff" d="M0 0h24v24H0z"/></clipPath></defs></svg>

<svg xmlns="http://www.w3.org/2000/svg" width="24" height="24" fill="none"><g clip-path="url(#a)"><g><path fill="#121212" d="M2 19H22V21H2V19ZM2 5L7 8.5L12 2L17 8.5L22 5V17H2V5ZM4 8.841V15H20V8.841L16.58 11.235L12 5.28L7.42 11.235L4 8.84V8.841Z"/></g></g><defs><clipPath id="a"><rect width="24" height="24" fill="white"/></clipPath></defs></svg>
